src/standard/hardware/virtual-storage-stack.svg

<svg xmlns="http://www.w3.org/2000/svg" viewBox="0 0 36 36">
  <path d="M5.85 6.65a.62.62 0 1 0-.38-1.13.63.63 0 0 0 .38 1.13Zm2.54-1.53a.62.62 0 1 0-.27-1.19.62.62 0 0 0 .27 1.19ZM4.26 8.48a.62.62 0 0 0-1-.73c-.49.65.54 1.4 1 .73Zm-1.79 2.95a.62.62 0 0 0 .22-1.23.62.62 0 0 0-.22 1.23Zm.65 11.28a.63.63 0 0 0-1.25 0 .63.63 0 0 0 1.25 0Zm8.04-18.64A.62.62 0 1 0 11 2.85a.62.62 0 0 0 .16 1.22ZM2.49 20.36a.63.63 0 0 0 0-1.25.63.63 0 0 0 0 1.25Zm0-5.95a.63.63 0 0 0 0-1.25.63.63 0 0 0 0 1.25Zm0 1.72a.63.63 0 0 0 0 1.25.63.63 0 0 0 0-1.25Zm.04 8.93a.63.63 0 0 0 .32 1.21.63.63 0 0 0-.32-1.21ZM28.19 5.5a.63.63 0 0 0 .61-1.1.63.63 0 0 0-.61 1.1ZM14.06 3.42A.62.62 0 1 0 14 2.18a.62.62 0 0 0 .06 1.24Zm18.82 8.38a.63.63 0 0 0 1.25 0 .63.63 0 0 0-1.25 0Zm-7.3-7.46A.62.62 0 0 0 26 3.16a.62.62 0 0 0-.42 1.18Zm5.34 2.94a.63.63 0 0 0 .42-1.09c-.92-.7-1.58 1-.42 1.09ZM17 3.14a.63.63 0 0 0 0-1.25.63.63 0 0 0 0 1.25Zm5.8.45a.63.63 0 0 0 .2-1.23.63.63 0 0 0-.2 1.23Zm-2.87-.4A.62.62 0 0 0 20 2a.62.62 0 0 0-.07 1.19ZM33.5 14.15a.63.63 0 0 0 0 1.25.63.63 0 0 0 0-1.25ZM33.24 26a.62.62 0 0 0-.51 1.14.62.62 0 0 0 .51-1.14ZM3.66 27.79a.63.63 0 0 0 .79 1 .63.63 0 0 0-.79-1Zm27.18.78a.62.62 0 0 0 .88.88c.58-.56-.32-1.45-.88-.88Zm-2.24 1.7a.62.62 0 0 0 .64 1.07.62.62 0 0 0-.64-1.07Zm4.9-7.19a.63.63 0 0 0 0 1.25.63.63 0 0 0 0-1.25Zm0-5.95a.63.63 0 0 0 0 1.25.63.63 0 0 0 0-1.25Zm0 2.97a.63.63 0 0 0 0 1.25.63.63 0 0 0 0-1.25ZM26 31.5a.62.62 0 0 0 .45 1.16.62.62 0 0 0-.45-1.16Zm6.77-21.92a.62.62 0 1 0-.3-1.18.63.63 0 0 0 .3 1.18ZM9.09 31.13a.63.63 0 0 0-.51 1.15.63.63 0 0 0 .51-1.15Zm5.54 1.52a.63.63 0 0 0-.17 1.24.63.63 0 0 0 .17-1.24Zm-2.83-.57a.63.63 0 0 0-.33 1.21.63.63 0 0 0 .33-1.21Zm-6.07-2.17a.62.62 0 0 0 1 .71.62.62 0 0 0-1-.71Zm14.68 2.85a.63.63 0 0 0 .12 1.24.63.63 0 0 0-.12-1.24Zm-2.9.12a.63.63 0 0 0 0 1.25.63.63 0 0 0 0-1.25Zm5.75-.57a.63.63 0 0 0 .27 1.23.63.63 0 0 0-.27-1.23ZM31.65 20v-8c0-4.29-6-7.65-13.65-7.65S4.35 7.71 4.35 12v12c0 4.29 6 7.65 13.65 7.65S31.65 28.29 31.65 24Zm-1.3 4c0 3.44-5.65 6.35-12.35 6.35S5.65 27.44 5.65 24v-.71c2.16 2.6 6.81 4.36 12.35 4.36s10.19-1.76 12.35-4.36Zm0-4c0 3.44-5.65 6.35-12.35 6.35S5.65 23.44 5.65 20v-.71c2.16 2.6 6.81 4.36 12.35 4.36s10.19-1.76 12.35-4.36Zm0-4c0 3.44-5.65 6.35-12.35 6.35S5.65 19.44 5.65 16v-.71c2.16 2.6 6.81 4.36 12.35 4.36s10.19-1.76 12.35-4.36ZM18 18.35c-6.7 0-12.35-2.91-12.35-6.35S11.3 5.65 18 5.65 30.35 8.56 30.35 12 24.7 18.35 18 18.35Z"/>
</svg>

<svg id="a888060b-62b5-4abf-9b26-09be93429caf" data-name="Icon" xmlns="http://www.w3.org/2000/svg" viewBox="0 0 36 36">
  <g>
    <path d="M5.85,6.65a.62.62,0,1,0-.38-1.13A.63.63,0,0,0,5.85,6.65Z"/>
    <path d="M8.39,5.12a.62.62,0,1,0-.27-1.19A.62.62,0,0,0,8.39,5.12Z"/>
    <path d="M4.26,8.48a.62.62,0,0,0-1-.73C2.77,8.4,3.8,9.15,4.26,8.48Z"/>
    <path d="M2.47,11.43a.62.62,0,0,0,.22-1.23A.62.62,0,0,0,2.47,11.43Z"/>
    <path d="M3.12,22.71a.63.63,0,0,0-1.25,0A.63.63,0,0,0,3.12,22.71Z"/>
    <path d="M11.16,4.07A.62.62,0,1,0,11,2.85.62.62,0,0,0,11.16,4.07Z"/>
    <path d="M2.49,20.36a.63.63,0,0,0,0-1.25A.63.63,0,0,0,2.49,20.36Z"/>
    <path d="M2.49,14.41a.63.63,0,0,0,0-1.25A.63.63,0,0,0,2.49,14.41Z"/>
    <path d="M2.49,16.13a.63.63,0,0,0,0,1.25A.63.63,0,0,0,2.49,16.13Z"/>
    <path d="M2.53,25.06a.63.63,0,0,0,.32,1.21A.63.63,0,0,0,2.53,25.06Z"/>
    <path d="M28.19,5.5a.63.63,0,0,0,.61-1.1A.63.63,0,0,0,28.19,5.5Z"/>
    <path d="M14.06,3.42A.62.62,0,1,0,14,2.18.62.62,0,0,0,14.06,3.42Z"/>
    <path d="M32.88,11.8a.63.63,0,0,0,1.25,0A.63.63,0,0,0,32.88,11.8Z"/>
    <path d="M25.58,4.34A.62.62,0,0,0,26,3.16.62.62,0,0,0,25.58,4.34Z"/>
    <path d="M30.92,7.28a.63.63,0,0,0,.42-1.09C30.42,5.49,29.76,7.19,30.92,7.28Z"/>
    <path d="M17,3.14a.63.63,0,0,0,0-1.25A.63.63,0,0,0,17,3.14Z"/>
    <path d="M22.8,3.59A.63.63,0,0,0,23,2.36.63.63,0,0,0,22.8,3.59Z"/>
    <path d="M19.93,3.19A.62.62,0,0,0,20,2,.62.62,0,0,0,19.93,3.19Z"/>
    <path d="M33.5,14.15a.63.63,0,0,0,0,1.25A.63.63,0,0,0,33.5,14.15Z"/>
    <path d="M33.24,26a.62.62,0,0,0-.51,1.14A.62.62,0,0,0,33.24,26Z"/>
    <path d="M3.66,27.79a.63.63,0,0,0,.79,1A.63.63,0,0,0,3.66,27.79Z"/>
    <path d="M30.84,28.57a.62.62,0,0,0,.88.88C32.3,28.89,31.4,28,30.84,28.57Z"/>
    <path d="M28.6,30.27a.62.62,0,0,0,.64,1.07A.62.62,0,0,0,28.6,30.27Z"/>
    <path d="M33.5,23.08a.63.63,0,0,0,0,1.25A.63.63,0,0,0,33.5,23.08Z"/>
    <path d="M33.5,17.13a.63.63,0,0,0,0,1.25A.63.63,0,0,0,33.5,17.13Z"/>
    <path d="M33.5,20.1a.63.63,0,0,0,0,1.25A.63.63,0,0,0,33.5,20.1Z"/>
    <path d="M26,31.5a.62.62,0,0,0,.45,1.16A.62.62,0,0,0,26,31.5Z"/>
    <path d="M32.77,9.58a.62.62,0,1,0-.3-1.18A.63.63,0,0,0,32.77,9.58Z"/>
    <path d="M9.09,31.13a.63.63,0,0,0-.51,1.15A.63.63,0,0,0,9.09,31.13Z"/>
    <path d="M14.63,32.65a.63.63,0,0,0-.17,1.24A.63.63,0,0,0,14.63,32.65Z"/>
    <path d="M11.8,32.08a.63.63,0,0,0-.33,1.21A.63.63,0,0,0,11.8,32.08Z"/>
    <path d="M5.73,29.91a.62.62,0,0,0,1,.71A.62.62,0,0,0,5.73,29.91Z"/>
    <path d="M20.41,32.76A.63.63,0,0,0,20.53,34,.63.63,0,0,0,20.41,32.76Z"/>
    <path d="M17.51,32.88a.63.63,0,0,0,0,1.25A.63.63,0,0,0,17.51,32.88Z"/>
    <path d="M23.26,32.31a.63.63,0,0,0,.27,1.23A.63.63,0,0,0,23.26,32.31Z"/>
    <path d="M31.65,20V12c0-4.29-6-7.65-13.65-7.65S4.35,7.71,4.35,12V24c0,4.29,6,7.65,13.65,7.65S31.65,28.29,31.65,24Zm-1.3,4c0,3.44-5.65,6.35-12.35,6.35S5.65,27.44,5.65,24v-.71c2.16,2.6,6.81,4.36,12.35,4.36s10.19-1.76,12.35-4.36Zm0-4c0,3.44-5.65,6.35-12.35,6.35S5.65,23.44,5.65,20v-.71c2.16,2.6,6.81,4.36,12.35,4.36s10.19-1.76,12.35-4.36Zm0-4c0,3.44-5.65,6.35-12.35,6.35S5.65,19.44,5.65,16v-.71c2.16,2.6,6.81,4.36,12.35,4.36s10.19-1.76,12.35-4.36ZM18,18.35c-6.7,0-12.35-2.91-12.35-6.35S11.3,5.65,18,5.65,30.35,8.56,30.35,12,24.7,18.35,18,18.35Z"/>
  </g>
</svg>
